X:1
T: Coming Through the Rye
C:
R:Jig
Q:180
K:G
M:6/8
L:1/16
|:D4D2 D2B4|A4G2 A2B4|D4D2 E4D2|G6-G4z2|
D4D2 d2B4|A4G2 A2B4|D4D2 E4D2|G6-G4z2|
d4B2 G2B4|A4G2 A2B4|d4B2 G2B2d2|e6-e4e2|
d4B2 c4A2|B4G2 A2B4|D2D4 E4D2|G6-G4z2:|
